X: 3258
T: AP SHENKIN
%R: jig
B: James Kerr "Merry Melodies" v.3 p.29 #258
Z: 2016 John Chambers <jc:trillian.mit.edu>
M: 6/8
L: 1/8
K: G
vd/uc/ |\
vB2vB Bgf | e2e efg | ded dcB | BAA Adc |\
B2B Bgf | e2e efg | ded cBA | AGG G2 H:|
ug |\
vb2vg a2f | gfe dcB | cde dgB | BAA A2g |\
b2g af2 | gfe agf | bag fge | dgf ed"_D.C."c |]

%%sep 1 1 500
%%sep 1 1 500

